X:71
T:Morrison's Jig
M:6/8
R:Jig
K:E Dorian
"Em"~E3 BEB|EBE "D"AFD|"Em"E3 B2c|"G"dcB "D"AFD|"Em"~E3 BEB|EBE "D"AFD|"G"G3 FGA|"D"dAG FED:|!
"Em"Bee fee|aee fed|Bee fee|"D"fag fed|"Em"Bee fee|aee fed|"G"gfe "Am"d2A|"D"BAG "Bm"FGA|!
"Em"Bee fee|aee fed|Bee fee|"D"faf def|"G"~g3 gfe|"D"def "G"g2d|"C"edc "Am"d2A|"D"BAG "Bm"FED|]

